X:2531
T:Cantar de Navidá (CT 316)
R:Cantar de Navidá
C:Tradicional
S:Música Tradicional Asturiana, (C) Tello & Tito. Asturies, 2001.
S:http://pagina.de/MusTradAst <telloytito@asturies.org>
N:Canción de Navidad, transcrita en Navia.
O:Navia
A:Asturies
Z:Cancioneru de Torner 316
M:3/4
L:1/8
Q:1/4=116
W:Esta noche es Nochebuena
W:y no es noche de dormir,
W:que anda la Virgen de parto
W:y a las doce ha de parir.
W:
W:La Virgen lava pañales
W:y los tiende en el romero;
W:los pajarillos cantaban
W:y el agua se iba reyendo.
W:
W:En el Portal de Belén
W:vende fruta una zagala,
W:y como es fruta del Cielo
W:nadie le pide alcabala.
W:
W:En el Portal de Belén
W:hay una piedra redonda
W:donde Cristo puso el pie
W:para subir a la gloria.
K:G
|: (3ddd g2 de|=f2 e4|(3def g2 de|=f2 e4|
(3e=fe d2 cB|A2 G4|(3FGA B2 cB|A2 G4 :||


